X: 2
T: Twenty Men From Dublin
Z: ceolachan
S: https://thesession.org/tunes/8693#setting19625
R: barndance
M: 4/4
L: 1/8
K: Dmaj
|: D3 E D2 G | B3 A G4 | E3 F AGFE | D8 |D3 E D2 G | B3 A G4 | A3 B cAFD |[1 G8 :|[2 G4- GD G/A/B |||: c2 B2 A2 D2 | B3 A G4 | E3 F AGFE | D8 |D3 E D2 G | B3 A G4 | A3 B dcAF | G8 :| A3 B A2 d2 | f3 e d3 A | B2 cd edcB | A4- AE E/F/G |A2 AB ADFA | f>gfe d4 | e3 f agec | d6 :|g3 f e2 A2 | a3 g f2 d2 | B2 B/c/d edcB | A6 E/F/G |A2 AB AFAd | f3 e d3 d | e2 ef g/f/e cA | d6 :|
